X:521
M:C
L:1/8
K:F
c|f<ad<f A<cF<c|f<a g>f e<g ~g>e|f<ad<f c<fA<c|Bc/d/ c>B A<F ~F>c|
f<ac<f A<cF<c|~f<a g>f e<g ~ga/g/|(3fga (3gab (3agf (3gfe|
~f<d c>B A<F~F||

